z_dist/img/icons/crypto/celo-CELO.svg

<svg width="64" height="64" viewBox="0 0 64 64" fill="none" xmlns="http://www.w3.org/2000/svg">
<rect width="64" height="64" rx="4" fill="#E7EFF3"/>
<path fill-rule="evenodd" clip-rule="evenodd" d="M13.3334 35.9295C13.3334 44.0681 19.9315 50.6663 28.0702 50.6663C36.2089 50.6663 42.8071 44.0681 42.8071 35.9295C42.8071 27.7908 36.2089 21.1926 28.0702 21.1926C19.9315 21.1926 13.3334 27.7908 13.3334 35.9295ZM38.8771 35.9301C38.8771 41.8995 34.0394 46.7371 28.07 46.7371C22.1006 46.7371 17.263 41.8995 17.263 35.9301C17.263 29.9607 22.1006 25.123 28.07 25.123C34.0394 25.123 38.8771 29.9607 38.8771 35.9301Z" fill="#FBCC5C"/>
<path fill-rule="evenodd" clip-rule="evenodd" d="M21.1927 28.0701C21.1927 36.2088 27.7909 42.8069 35.9296 42.8069C44.0683 42.8069 50.6664 36.2088 50.6664 28.0701C50.6664 19.9314 44.0683 13.3333 35.9296 13.3333C27.7909 13.3333 21.1927 19.9314 21.1927 28.0701ZM46.7364 28.07C46.7364 34.0394 41.8988 38.8771 35.9294 38.8771C29.96 38.8771 25.1224 34.0394 25.1224 28.07C25.1224 22.1006 29.96 17.263 35.9294 17.263C41.8988 17.263 46.7364 22.1006 46.7364 28.07Z" fill="#35D07F"/>
<path fill-rule="evenodd" clip-rule="evenodd" d="M21.1927 27.5833C22.4346 26.5615 23.8847 25.8306 25.4409 25.4415C25.8299 23.8814 26.5609 22.4313 27.5826 21.1934C25.7828 21.2523 24.0026 21.6414 22.3403 22.3409C21.6368 24.0032 21.2478 25.7795 21.1927 27.5833ZM38.5584 38.5591C38.1694 40.1192 37.4384 41.5693 36.4167 42.8072C38.2205 42.7522 39.9967 42.3631 41.6591 41.6636C42.3625 39.9974 42.7515 38.2211 42.8066 36.4173C41.5647 37.4391 40.1146 38.17 38.5584 38.5591Z" fill="#5EA33B"/>
</svg>

<svg width="64" height="64" fill="none" xmlns="http://www.w3.org/2000/svg"><rect width="64" height="64" rx="4" fill="#E7EFF3"/><path fill-rule="evenodd" clip-rule="evenodd" d="M13.333 35.93c0 8.138 6.598 14.736 14.737 14.736s14.737-6.598 14.737-14.736c0-8.14-6.598-14.737-14.737-14.737S13.333 27.79 13.333 35.929zm25.544 0c0 5.97-4.838 10.807-10.807 10.807-5.97 0-10.807-4.837-10.807-10.807 0-5.97 4.838-10.807 10.807-10.807 5.97 0 10.807 4.838 10.807 10.807z" fill="#FBCC5C"/><path fill-rule="evenodd" clip-rule="evenodd" d="M21.193 28.07c0 8.139 6.598 14.737 14.737 14.737 8.138 0 14.736-6.598 14.736-14.737S44.068 13.333 35.93 13.333c-8.14 0-14.737 6.598-14.737 14.737zm25.543 0c0 5.97-4.837 10.807-10.807 10.807-5.969 0-10.807-4.838-10.807-10.807 0-5.97 4.838-10.807 10.807-10.807 5.97 0 10.807 4.838 10.807 10.807z" fill="#35D07F"/><path fill-rule="evenodd" clip-rule="evenodd" d="M21.193 27.583a10.812 10.812 0 014.248-2.141c.389-1.56 1.12-3.01 2.142-4.249-1.8.06-3.58.448-5.243 1.148a14.59 14.59 0 00-1.147 5.242zM38.558 38.56a10.759 10.759 0 01-2.141 4.248 14.668 14.668 0 005.242-1.143 14.63 14.63 0 001.148-5.247 10.812 10.812 0 01-4.249 2.142z" fill="#5EA33B"/></svg>
